X:16
T:Countess of Dalkeith's
C:William Marshall
S:Petrie's Third Collection of Strathspey Reels and Country Dances &c.
Z:Steve Wyrick , 7/30/05
N:Petrie's Third Collection, page 7
L:1/8
M:C
R:Strathspey
K:Bb
F|B>cBd FB G/F/E/D/|BF B/c/d/B/ dCCA|B>cB<d F>G G/F/E/D/|E<gf>e dBB:|f|df e/d/c/B/ bBdB|fB e/d/c/B/ Accd/e/|
fBgB fBdB|A/B/c Fe dBBg|f3/2g//a// bB gBfB|ec e/d/c/B/ Accd|BFGB FB G/F/E/D/|Egfe dBB|]
